static/img/icons/icon-queues-dark.svg

<svg width="24" height="24" viewBox="0 0 24 24" fill="none" xmlns="http://www.w3.org/2000/svg">
<path d="M2.5 2.75H3.5C4.19036 2.75 4.75 3.30964 4.75 4V20C4.75 20.6904 4.19036 21.25 3.5 21.25H2.5C1.80964 21.25 1.25 20.6904 1.25 20V4C1.25 3.30964 1.80964 2.75 2.5 2.75ZM8.5 2.75H9.5C10.1904 2.75 10.75 3.30964 10.75 4V20C10.75 20.6904 10.1904 21.25 9.5 21.25H8.5C7.80964 21.25 7.25 20.6904 7.25 20V4C7.25 3.30964 7.80964 2.75 8.5 2.75ZM14.5 2.75H15.5C16.1904 2.75 16.75 3.30964 16.75 4V20C16.75 20.6904 16.1904 21.25 15.5 21.25H14.5C13.8096 21.25 13.25 20.6904 13.25 20V4C13.25 3.30964 13.8096 2.75 14.5 2.75ZM20.5 2.75H21.5C22.1904 2.75 22.75 3.30964 22.75 4V20C22.75 20.6904 22.1904 21.25 21.5 21.25H20.5C19.8096 21.25 19.25 20.6904 19.25 20V4C19.25 3.30964 19.8096 2.75 20.5 2.75Z" stroke="#141414" stroke-width="1.5"/>
</svg>

<svg xmlns="http://www.w3.org/2000/svg" width="24" height="24" fill="none" viewBox="0 0 24 24">
  <path stroke="#141414" stroke-width="1.5" d="M2.5 2.75h1c.69 0 1.25.56 1.25 1.25v16c0 .69-.56 1.25-1.25 1.25h-1c-.69 0-1.25-.56-1.25-1.25V4c0-.69.56-1.25 1.25-1.25Zm6 0h1c.69 0 1.25.56 1.25 1.25v16c0 .69-.56 1.25-1.25 1.25h-1c-.69 0-1.25-.56-1.25-1.25V4c0-.69.56-1.25 1.25-1.25Zm6 0h1c.69 0 1.25.56 1.25 1.25v16c0 .69-.56 1.25-1.25 1.25h-1c-.69 0-1.25-.56-1.25-1.25V4c0-.69.56-1.25 1.25-1.25Zm6 0h1c.69 0 1.25.56 1.25 1.25v16c0 .69-.56 1.25-1.25 1.25h-1c-.69 0-1.25-.56-1.25-1.25V4c0-.69.56-1.25 1.25-1.25Z"/>
</svg>
